meters/img/dzen.svg

<svg width="32" height="32" viewBox="0 0 32 32" fill="none" xmlns="http://www.w3.org/2000/svg">
<g clip-path="url(#clip0_3001_3446)">
<path fill-rule="evenodd" clip-rule="evenodd" d="M16.0635 31.8523H15.9365C9.58228 31.8523 5.86718 31.2171 3.28008 28.6952C0.614053 25.9954 0 22.3274 0 16.0381V15.8602C0 9.57082 0.614053 5.87794 3.28008 3.20301C5.8922 0.683062 9.58228 0.0458984 15.9346 0.0458984H16.0635C22.3907 0.0458984 26.1058 0.683062 28.72 3.20301C31.386 5.90281 32 9.57082 32 15.8602V16.0381C32 22.3293 31.3841 26.0222 28.72 28.6952C26.1058 31.2152 22.4177 31.8523 16.0635 31.8523ZM28.1137 15.4769C28.2371 15.4827 28.3373 15.5842 28.3373 15.7068H28.3354V16.2202C28.3354 16.3447 28.2352 16.4462 28.1118 16.4501C23.6854 16.6167 20.9932 17.176 19.1065 19.0514C17.2218 20.9248 16.6591 23.5971 16.4895 27.9895C16.4837 28.112 16.3816 28.2116 16.2582 28.2116H15.7398C15.6146 28.2116 15.5124 28.112 15.5086 27.9895C15.339 23.5971 14.7763 20.9248 12.8916 19.0514C11.0069 17.178 8.31277 16.6167 3.88619 16.4501C3.76285 16.4443 3.66265 16.3428 3.66265 16.2202V15.7068C3.66265 15.5823 3.76285 15.4808 3.88619 15.4769C8.31277 15.3103 11.0049 14.7509 12.8916 12.8756C14.7801 10.9983 15.3429 8.31655 15.5105 3.90883C15.5163 3.78623 15.6184 3.68661 15.7418 3.68661H16.2582C16.3835 3.68661 16.4856 3.78623 16.4895 3.90883C16.6571 8.31847 17.2199 10.9983 19.1084 12.8756C20.9932 14.749 23.6873 15.3103 28.1137 15.4769Z" fill="#F1F2F1"/>
</g>
<defs>
<clipPath id="clip0_3001_3446">
<rect width="32" height="32" fill="white"/>
</clipPath>
</defs>
</svg>

<svg width="32" height="32" fill="none" xmlns="http://www.w3.org/2000/svg"><g clip-path="url(#a)"><path fill-rule="evenodd" clip-rule="evenodd" d="M16.064 31.852h-.127c-6.355 0-10.07-.635-12.657-3.157C.614 25.995 0 22.327 0 16.038v-.178C0 9.57.614 5.878 3.28 3.203 5.892.683 9.582.046 15.935.046h.129c6.327 0 10.042.637 12.656 3.157C31.386 5.903 32 9.571 32 15.86v.178c0 6.291-.616 9.984-3.28 12.657-2.614 2.52-6.302 3.157-12.656 3.157Zm12.05-16.375a.234.234 0 0 1 .223.23h-.002v.513c0 .125-.1.226-.223.23-4.427.167-7.119.726-9.005 2.601-1.885 1.874-2.448 4.546-2.617 8.939a.234.234 0 0 1-.232.222h-.518a.231.231 0 0 1-.231-.223c-.17-4.392-.733-7.064-2.617-8.938-1.885-1.873-4.58-2.434-9.006-2.6a.234.234 0 0 1-.223-.23v-.514c0-.125.1-.226.223-.23 4.427-.167 7.119-.726 9.006-2.601 1.888-1.878 2.45-4.56 2.619-8.967a.234.234 0 0 1 .23-.222h.517c.126 0 .228.1.232.222.167 4.41.73 7.09 2.618 8.967 1.885 1.873 4.58 2.434 9.006 2.6Z" fill="#F1F2F1"/></g><defs><clipPath id="a"><path fill="#fff" d="M0 0h32v32H0z"/></clipPath></defs></svg>
